X: 356
T: Portpatrick
C: anon.
O: Ireland
B: Francis O'Neill: "The Dance Music of Ireland" (1907) no. 356
R: Double jig
Z: Transcribed by Frank Nordberg - http://www.musicaviva.com
F: http://www.musicaviva.com/abc/tunes/ireland/oneill-1001/oneill-1001-035
6.abc
M: 6/8
L: 1/8
K: G
g|dBG GAB|c2B A2G|dBG GAG|A2B c2g|dBG GAB|c2B A2G|(B/c/d)B cAd|BGG G2:|
|:d|ece dBd|ece def|gfe dBG|A2B c2e|def gfe|dcB A2G|(B/c/d)B cAd|BGG G2:|


